packages/kaspersky-hexa-ui-icons/src/iconsSVGs/24/StatusPauseSolid.svg

<svg width="24" height="24" viewBox="0 0 24 24" fill="none" xmlns="http://www.w3.org/2000/svg">
<path fill-rule="evenodd" clip-rule="evenodd" d="M22 12C22 17.5228 17.5228 22 12 22C6.47715 22 2 17.5228 2 12C2 6.47715 6.47715 2 12 2C17.5228 2 22 6.47715 22 12ZM8.5 9.48877C8.5 8.93648 8.94772 8.48877 9.5 8.48877C10.0523 8.48877 10.5 8.93648 10.5 9.48877V14.5113C10.5 15.0635 10.0523 15.5113 9.5 15.5113C8.94772 15.5113 8.5 15.0635 8.5 14.5113V9.48877ZM14.5 8.48877C13.9477 8.48877 13.5 8.93648 13.5 9.48877V14.5113C13.5 15.0635 13.9477 15.5113 14.5 15.5113C15.0523 15.5113 15.5 15.0635 15.5 14.5113V9.48877C15.5 8.93648 15.0523 8.48877 14.5 8.48877Z" fill="black"/>
</svg>

<svg xmlns="http://www.w3.org/2000/svg" width="24" height="24" fill="none" viewBox="0 0 24 24"><path fill="#000" fill-rule="evenodd" d="M22 12c0 5.5228-4.4772 10-10 10S2 17.5228 2 12 6.4772 2 12 2s10 4.4772 10 10M8.5 9.4888c0-.5523.4477-1 1-1s1 .4477 1 1v5.0225c0 .5522-.4477 1-1 1s-1-.4478-1-1zm6-1c-.5523 0-1 .4477-1 1v5.0225c0 .5522.4477 1 1 1s1-.4478 1-1V9.4888c0-.5523-.4477-1-1-1"/></svg>
